X: 30477
T: Old Windmill, The
R: reel
M: 4/4
K: Dmajor
|:DEFA d2fd|BdAd BAFE|DEFA dFAF|EFDF E2FE|
DEFA d2fd|BdAd B2de|fAdf eBdB|1 AFEF D3 A,:|2 AFEF D3 d||
|:ABde f2af|e2df eBBd|ABde fAdf|afdf e2dB|
ABde f2af|efdf eBBf|fAdf eBdB|1 AFEF D3 d:|2 AFEF D4||

